static/img/kroki/59fae7e79f6179e8b983cc01e03fabdc.svg

<?xml version="1.0" encoding="us-ascii" standalone="no"?><svg xmlns="http://www.w3.org/2000/svg" xmlns:xlink="http://www.w3.org/1999/xlink" contentStyleType="text/css" height="374px" preserveAspectRatio="none" style="width:404px;height:374px;" version="1.1" viewBox="0 0 404 374" width="404px" zoomAndPan="magnify"><defs/><g><!--class azure_cosmos_db_sql_throughput_setting--><g id="elem_azure_cosmos_db_sql_throughput_setting"><rect codeLine="23" fill="#3D176E" height="39.7891" id="azure_cosmos_db_sql_throughput_setting" rx="2.5" ry="2.5" style="stroke:#000D19;stroke-width:0.5;" width="390" x="7" y="328.58"/><ellipse cx="22" cy="348.4745" fill="#ADD1B2" rx="11" ry="11" style="stroke:#181818;stroke-width:1.0;"/><path d="M24.9688,354.1152 Q24.3906,354.412 23.75,354.5527 Q23.1094,354.7089 22.4063,354.7089 Q19.9063,354.7089 18.5781,353.0683 Q17.2656,351.412 17.2656,348.287 Q17.2656,345.162 18.5781,343.5058 Q19.9063,341.8495 22.4063,341.8495 Q23.1094,341.8495 23.75,342.0058 Q24.4063,342.162 24.9688,342.4589 L24.9688,345.1777 Q24.3438,344.5995 23.75,344.3339 Q23.1563,344.0527 22.5313,344.0527 Q21.1875,344.0527 20.5,345.1308 Q19.8125,346.1933 19.8125,348.287 Q19.8125,350.3808 20.5,351.4589 Q21.1875,352.5214 22.5313,352.5214 Q23.1563,352.5214 23.75,352.2558 Q24.3438,351.9745 24.9688,351.3964 L24.9688,354.1152 Z " fill="#000000"/><text fill="#D9B8FF" font-family="Helvetica" font-size="17" lengthAdjust="spacing" textLength="348" x="41" y="354.3598">azure_cosmos_db_sql_throughput_setting</text></g><!--class microsoft_resource--><g id="elem_microsoft_resource"><rect codeLine="26" fill="#3D176E" height="39.7891" id="microsoft_resource" rx="2.5" ry="2.5" style="stroke:#000D19;stroke-width:0.5;" width="200" x="102" y="167.79"/><ellipse cx="117" cy="187.6845" fill="#ADD1B2" rx="11" ry="11" style="stroke:#181818;stroke-width:1.0;"/><path d="M119.9688,193.3252 Q119.3906,193.622 118.75,193.7627 Q118.1094,193.9189 117.4063,193.9189 Q114.9063,193.9189 113.5781,192.2783 Q112.2656,190.622 112.2656,187.497 Q112.2656,184.372 113.5781,182.7158 Q114.9063,181.0595 117.4063,181.0595 Q118.1094,181.0595 118.75,181.2158 Q119.4063,181.372 119.9688,181.6689 L119.9688,184.3877 Q119.3438,183.8095 118.75,183.5439 Q118.1563,183.2627 117.5313,183.2627 Q116.1875,183.2627 115.5,184.3408 Q114.8125,185.4033 114.8125,187.497 Q114.8125,189.5908 115.5,190.6689 Q116.1875,191.7314 117.5313,191.7314 Q118.1563,191.7314 118.75,191.4658 Q119.3438,191.1845 119.9688,190.6064 L119.9688,193.3252 Z " fill="#000000"/><text fill="#D9B8FF" font-family="Helvetica" font-size="17" lengthAdjust="spacing" textLength="158" x="136" y="193.5698">microsoft_resource</text></g><!--class resource--><g id="elem_resource"><rect codeLine="29" fill="#3D176E" height="39.7891" id="resource" rx="2.5" ry="2.5" style="stroke:#000D19;stroke-width:0.5;" width="113" x="145.5" y="7"/><ellipse cx="160.5" cy="26.8945" fill="#ADD1B2" rx="11" ry="11" style="stroke:#181818;stroke-width:1.0;"/><path d="M163.4688,32.5352 Q162.8906,32.832 162.25,32.9727 Q161.6094,33.1289 160.9063,33.1289 Q158.4063,33.1289 157.0781,31.4883 Q155.7656,29.832 155.7656,26.707 Q155.7656,23.582 157.0781,21.9258 Q158.4063,20.2695 160.9063,20.2695 Q161.6094,20.2695 162.25,20.4258 Q162.9063,20.582 163.4688,20.8789 L163.4688,23.5977 Q162.8438,23.0195 162.25,22.7539 Q161.6563,22.4727 161.0313,22.4727 Q159.6875,22.4727 159,23.5508 Q158.3125,24.6133 158.3125,26.707 Q158.3125,28.8008 159,29.8789 Q159.6875,30.9414 161.0313,30.9414 Q161.6563,30.9414 162.25,30.6758 Q162.8438,30.3945 163.4688,29.8164 L163.4688,32.5352 Z " fill="#000000"/><text fill="#D9B8FF" font-family="Helvetica" font-size="17" lengthAdjust="spacing" textLength="71" x="179.5" y="32.7798">resource</text></g><!--reverse link microsoft_resource to azure_cosmos_db_sql_throughput_setting--><g id="link_microsoft_resource_azure_cosmos_db_sql_throughput_setting"><path codeLine="32" d="M202,225.84 C202,256.36 202,297.69 202,328.25 " fill="none" id="microsoft_resource-backto-azure_cosmos_db_sql_throughput_setting" style="stroke:#FFAF37;stroke-width:2.0;"/><polygon fill="none" points="202,207.84,196,225.84,208,225.84,202,207.84" style="stroke:#FFAF37;stroke-width:2.0;"/></g><!--reverse link resource to microsoft_resource--><g id="link_resource_microsoft_resource"><path codeLine="33" d="M202,65.05 C202,95.57 202,136.9 202,167.46 " fill="none" id="resource-backto-microsoft_resource" style="stroke:#FFAF37;stroke-width:2.0;"/><polygon fill="none" points="202,47.05,196,65.05,208,65.05,202,47.05" style="stroke:#FFAF37;stroke-width:2.0;"/></g><!--SRC=[ZP1FJm8n4CNl-ocQS2O1YGA95o0nUY56l6-wxPHjsBRhpAm4rEykAsZABd-ypllDlFScjne4k98tme7B02cXbVMbHEd4136iPw48A3h6I3CODiM7uFagC9SEn2CKxy1MoIRncbkrya0aRY9fAjLgYQ7oUd-UKNhQIU0vecQ599emeyqgXYYC7cSZOvfaysXdeFl3EsXX0JNW0UdrUhe_RY9NhIxs_YCMTWkY7pzj7XXQCLiMFzJ5b3KHXMmL_TNFPdoMMbk_5BVHx6MV2JtWqNoHIntMDMraGR4DCI04tfGmQxM2yKYRuKduwHoSgFfrGcuhX5G5Se5IdQNqLgISx_XbNbQS4Z3NQJwIvEkmuQp2GC5mYa2XGWMnUZmxmTv_ThlTVzecZQtskUGR]--></g></svg>

<svg xmlns="http://www.w3.org/2000/svg" width="404" height="374" viewBox="0 0 404 374"><rect width="390" height="39.789" x="7" y="328.58" fill="#3D176E" rx="2.5" ry="2.5" style="stroke:#000d19;stroke-width:.5"/><circle cx="22" cy="348.474" r="11" fill="#ADD1B2" style="stroke:#181818;stroke-width:1"/><path d="M24.969 354.115q-.578.297-1.219.438-.64.156-1.344.156-2.5 0-3.828-1.64-1.312-1.657-1.312-4.782t1.312-4.781q1.328-1.656 3.828-1.656.703 0 1.344.156.656.156 1.219.453v2.719q-.625-.579-1.219-.844-.594-.281-1.219-.281-1.343 0-2.031 1.078-.687 1.062-.687 3.156t.687 3.172q.688 1.062 2.031 1.062.625 0 1.219-.265.594-.281 1.219-.86z"/><text x="41" y="354.36" fill="#D9B8FF" font-family="Helvetica" font-size="17" textLength="348">azure_cosmos_db_sql_throughput_setting</text><rect width="200" height="39.789" x="102" y="167.79" fill="#3D176E" rx="2.5" ry="2.5" style="stroke:#000d19;stroke-width:.5"/><circle cx="117" cy="187.685" r="11" fill="#ADD1B2" style="stroke:#181818;stroke-width:1"/><path d="M119.969 193.325q-.578.297-1.219.438-.64.156-1.344.156-2.5 0-3.828-1.64-1.312-1.657-1.312-4.782t1.312-4.781q1.328-1.656 3.828-1.656.703 0 1.344.156.656.156 1.219.453v2.719q-.625-.578-1.219-.844-.594-.281-1.219-.281-1.344 0-2.031 1.078-.687 1.062-.687 3.156t.687 3.172q.688 1.062 2.031 1.062.625 0 1.219-.265.594-.281 1.219-.86z"/><text x="136" y="193.57" fill="#D9B8FF" font-family="Helvetica" font-size="17" textLength="158">microsoft_resource</text><rect width="113" height="39.789" x="145.5" y="7" fill="#3D176E" rx="2.5" ry="2.5" style="stroke:#000d19;stroke-width:.5"/><circle cx="160.5" cy="26.895" r="11" fill="#ADD1B2" style="stroke:#181818;stroke-width:1"/><path d="M163.469 32.535q-.578.297-1.219.438-.64.156-1.344.156-2.5 0-3.828-1.64-1.312-1.657-1.312-4.782t1.312-4.781q1.328-1.656 3.828-1.656.703 0 1.344.156.656.156 1.219.453v2.719q-.625-.578-1.219-.844-.594-.281-1.219-.281-1.344 0-2.031 1.078-.687 1.062-.687 3.156t.687 3.172q.688 1.062 2.031 1.062.625 0 1.219-.265.594-.281 1.219-.86z"/><text x="179.5" y="32.78" fill="#D9B8FF" font-family="Helvetica" font-size="17" textLength="71">resource</text><path fill="none" d="M202 225.84v102.41m0-120.41-6 18h12zm0-142.79v102.41m0-120.41-6 18h12z" style="stroke:#ffaf37;stroke-width:2"/></svg>
